images/cart-only.svg

<svg width="29" height="26" viewBox="0 0 29 26" fill="none" xmlns="http://www.w3.org/2000/svg">
<path d="M1.22105 5.14092e-05C0.549474 5.14092e-05 0 0.567482 0 1.26101C0 1.95453 0.549474 2.52196 1.22105 2.52196H3.93057L7.13583 15.762C7.40691 16.8843 8.38131 17.6534 9.50101 17.6534H23.5053C24.6067 17.6534 25.542 16.8994 25.8326 15.8011L29 3.78292H8.54737L9.1579 6.30483H25.8326L23.5053 15.1315H9.50101L6.29575 1.89149C6.16369 1.3484 5.85894 0.866812 5.43031 0.523865C5.00169 0.180917 4.474 -0.0035379 3.93179 5.14092e-05H1.22105ZM21.9789 17.6534C19.9703 17.6534 18.3158 19.362 18.3158 21.4363C18.3158 23.5106 19.9703 25.2192 21.9789 25.2192C23.9876 25.2192 25.6421 23.5106 25.6421 21.4363C25.6421 19.362 23.9876 17.6534 21.9789 17.6534ZM10.9895 17.6534C8.98084 17.6534 7.32632 19.362 7.32632 21.4363C7.32632 23.5106 8.98084 25.2192 10.9895 25.2192C12.9981 25.2192 14.6526 23.5106 14.6526 21.4363C14.6526 19.362 12.9981 17.6534 10.9895 17.6534ZM10.9895 20.1753C11.6769 20.1753 12.2105 20.7277 12.2105 21.4363C12.2105 22.1462 11.6757 22.6973 10.9895 22.6973C10.302 22.6973 9.76842 22.145 9.76842 21.4363C9.76842 20.7264 10.3032 20.1753 10.9895 20.1753ZM21.9789 20.1753C22.6664 20.1753 23.2 20.7277 23.2 21.4363C23.2 22.1462 22.6652 22.6973 21.9789 22.6973C21.2915 22.6973 20.7579 22.145 20.7579 21.4363C20.7579 20.7264 21.2927 20.1753 21.9789 20.1753Z" fill="#313131"/>
</svg>

<svg xmlns="http://www.w3.org/2000/svg" width="29" height="26" fill="none"><path fill="#313131" d="M1.221 0C.549 0 0 .567 0 1.261s.55 1.261 1.221 1.261h2.71l3.205 13.24c.27 1.122 1.245 1.891 2.365 1.891h14.004c1.102 0 2.037-.754 2.328-1.852L29 3.783H8.547l.61 2.522h16.676l-2.328 8.826H9.501L6.296 1.891A2.508 2.508 0 0 0 5.43.524 2.372 2.372 0 0 0 3.932 0H1.22ZM21.98 17.653c-2.009 0-3.663 1.709-3.663 3.783 0 2.075 1.654 3.783 3.663 3.783s3.663-1.708 3.663-3.783c0-2.074-1.654-3.783-3.663-3.783Zm-10.99 0c-2.008 0-3.663 1.709-3.663 3.783 0 2.075 1.655 3.783 3.663 3.783 2.01 0 3.664-1.708 3.664-3.783 0-2.074-1.655-3.783-3.664-3.783Zm0 2.522c.688 0 1.221.553 1.221 1.261 0 .71-.534 1.261-1.22 1.261-.688 0-1.222-.552-1.222-1.26 0-.71.535-1.262 1.221-1.262Zm10.99 0c.687 0 1.221.553 1.221 1.261 0 .71-.535 1.261-1.221 1.261-.688 0-1.221-.552-1.221-1.26 0-.71.535-1.262 1.22-1.262Z"/></svg>
